X:22
T:West Winds
C:Roy Watrous, 1978
S:The Watrous Book, 1992
M:3/4
L:1/4
Q:1/4=120
K:C
%%MIDI program 72
%%MIDI transpose 8
%%MIDI ratio 3 1
E/F/|G>AG|FED|CDE|A,2G,|C>B,C|EGc|AGE|D2E/F/|
G>AG|FED|CDE|A,2G,|CEG|DFA|G>B,D|C2E|DFA|GBd|
c>BA|G2E|ABc|cGE|A>GE|D2E|G>AG|FED|CDE|A,2G,|
CEG|DFA|G>B,D|C3|]
W:To the sea, to the sea, where the tides gently falling
W:West away, west away, carry me home
W:I must follow the voice of my love softly calling
W:Blow ye winds westerly, westerly blow
W:I followed my star to all lands near and far,
W:West away, west away, carry me home
W:To the land of the sun where the sweet waters flow
W:Blow ye winds westerly, westerly blow
W:
W:I'll soon bid farewell to this land I know well
W:West away, West away, carry me home
W:For the nights are so cold and the days they grow old
W:Blow ye winds westerly, westerly blow
W:My days have grown weary, yet your love is near me
W:West away, west away, carry me home
W:To the green hills that bore me where she's waiting for me
W:Blow ye winds westerly, westerly blow

